!!!OTL: Die Koenigstochter Stander op, stander op, mine Sonner syv,
!!!ARE: Nordeuropa, Daenemark, Nornissom
!!!YOR: 2, S. 65
!!    1810 aufgezeichnet
!!!SCT: Q2040
!!!YEM: Copyright 1995, estate of Helmut Schaffrath.
**kern
*ICvox
*Ivox
*M6/8
*k[f#]
*e:
{16b
16b
=1
4b
16a
16a
4b
16b
16b
=2
8a
8f#
8gn
4e}
{8e
=3
8.b
16a
16f#
16f#
8f#
8gn
8a
=4
4.b
4r}
{8a
=5
8b
8ccn
8a
8b
8ccn
8a
=6
8b
8cc#
8dd#
4ee}
{8gn
=7
8f#
8ccn
8b
8b
8a
8gn
=8
4.e
4r}
==
!!!AGN: Ballade, Betrug, Ehe, Tod
!! Daenische Fassung der Ballade.
!!!ONB: ESAC (Essen Associative Code) Database: BALLADE
!!!AMT: compound duple
!!!AIN: vox
!!!EED: Helmut Schaffrath
!!!EEV: 1.0
*-
!!!title: @{OTL} [@{SCT}]
